dist/assets/img/about/mouse.svg

<svg width="80" height="80" viewBox="0 0 80 80" fill="none" xmlns="http://www.w3.org/2000/svg">
<g clip-path="url(#clip0)">
<path d="M44.0768 28.4907C43.9799 28.9046 43.6248 29.1972 43.2201 29.2315L33.8112 30.0485L28.9031 38.1174C28.6927 38.4648 28.2729 38.653 27.859 38.5562C27.456 38.4618 27.1771 38.129 27.1271 37.751L24.2313 16.2807C24.2071 16.165 24.2153 16.0492 24.2439 15.9268C24.3648 15.4105 24.8866 15.0866 25.4029 15.2075C25.5253 15.2361 25.6326 15.2802 25.7256 15.3532L43.6819 27.4779C43.997 27.6883 44.1715 28.0859 44.0768 28.4907V28.4907Z" fill="#F9FAFC"/>
<path d="M28.2796 17.2283C28.2699 17.1805 28.2839 17.1287 28.2836 17.0812L25.7256 15.3532C25.6326 15.2802 25.5253 15.2361 25.4029 15.2075C24.8866 15.0866 24.3648 15.4105 24.2439 15.9268C24.2153 16.0492 24.2071 16.165 24.2295 16.2803L27.1249 37.7524C27.1749 38.1304 27.4538 38.4632 27.8568 38.5576C28.2706 38.6544 28.6905 38.4661 28.9008 38.1187L30.6964 35.1666L28.2796 17.2283Z" fill="#E2E7EE"/>
<path d="M43.3256 62.1036C50.033 63.6737 56.7432 59.509 58.3133 52.8016C59.8833 46.0942 55.7187 39.384 49.0113 37.814C42.3039 36.244 35.5937 40.4086 34.0236 47.116C32.4536 53.8234 36.6182 60.5336 43.3256 62.1036Z" fill="#6AB0FF"/>
<path d="M38.0719 48.0636C39.4803 42.047 45.0254 38.0918 50.9929 38.4695C50.3587 38.2034 49.7022 37.9757 49.0113 37.814C42.3037 36.2439 35.5937 40.4085 34.0236 47.116C32.4535 53.8235 36.6181 60.5336 43.3256 62.1036C44.0165 62.2654 44.7063 62.3509 45.3923 62.3957C39.8771 60.0856 36.6635 54.0802 38.0719 48.0636Z" fill="#2A79FC"/>
<path d="M60.0909 18.8113L61.661 17.8369L63.6099 20.977L62.0398 21.9514L60.0909 18.8113Z" fill="#F9FAFC"/>
<path d="M65.6907 27.8405L67.2607 26.8661L69.2096 30.0062L67.6396 30.9806L65.6907 27.8405Z" fill="#F9FAFC"/>
<path d="M57.7593 27.3145L60.8994 25.3656L61.8738 26.9356L58.7337 28.8845L57.7593 27.3145Z" fill="#F9FAFC"/>
<path d="M66.7872 21.7125L69.9273 19.7636L70.9018 21.3336L67.7617 23.2825L66.7872 21.7125Z" fill="#F9FAFC"/>
<path d="M45.9772 44.6951L48.676 45.3269L46.3596 55.2226L43.6608 54.5909L45.9772 44.6951Z" fill="#262B37"/>
<path d="M41.5365 47.4512L51.4323 49.7676L50.8005 52.4664L40.9048 50.15L41.5365 47.4512Z" fill="#262B37"/>
<path d="M27.5433 39.9057C26.6005 39.685 25.8808 38.8921 25.7521 37.934L22.8577 16.4659C22.811 16.2519 22.8188 15.9349 22.895 15.6092C23.1902 14.348 24.4577 13.5629 25.7189 13.8581C26.0356 13.9322 26.3199 14.0633 26.5616 14.247L44.4563 26.3269C45.2559 26.8671 45.6474 27.8621 45.4263 28.8067C45.1943 29.798 44.3562 30.5242 43.341 30.613L34.6295 31.3693L30.0857 38.8383C29.56 39.7059 28.5365 40.1381 27.5433 39.9057V39.9057ZM25.7271 17.0256L28.3391 36.376L32.627 29.3273C32.8576 28.9505 33.251 28.7047 33.6906 28.6672L41.9102 27.9532L25.7271 17.0256ZM24.9487 16.4999C24.9555 16.5034 24.9619 16.5086 24.9704 16.5125L24.9487 16.4999ZM25.5903 16.0048L25.6029 16.0969C25.5994 16.0714 25.5957 16.0383 25.5903 16.0048Z" fill="#262B37"/>
<path d="M43.0096 63.4531C35.568 61.7111 30.9322 54.2418 32.6741 46.8001C34.416 39.3585 41.8854 34.7227 49.327 36.4646C56.7686 38.2065 61.4045 45.6759 59.6626 53.1175C57.9207 60.5591 50.4513 65.195 43.0096 63.4531ZM48.6953 39.1634C42.7416 37.7698 36.7665 41.4782 35.3729 47.4319C33.9793 53.3855 37.6877 59.3606 43.6414 60.7542C49.595 62.1478 55.5701 58.4394 56.9637 52.4858C58.3573 46.5321 54.6489 40.557 48.6953 39.1634Z" fill="#262B37"/>
</g>
<defs>
<clipPath id="clip0">
<rect width="66.5232" height="66.5232" fill="white" transform="translate(15.1617) rotate(13.1744)"/>
</clipPath>
</defs>
</svg>

<svg width="80" height="80" viewBox="0 0 80 80" fill="none" xmlns="http://www.w3.org/2000/svg"><g clip-path="url(#clip0)"><path d="M44.077 28.49a.967.967 0 01-.857.742l-9.409.817-4.908 8.068a.967.967 0 01-1.044.44.958.958 0 01-.732-.806l-2.896-21.47a.805.805 0 01.013-.354.968.968 0 011.159-.72c.122.03.23.073.323.146l17.956 12.125c.315.21.49.608.395 1.013z" fill="#F9FAFC"/><path d="M28.28 17.228c-.01-.048.004-.1.004-.147l-2.558-1.728a.805.805 0 00-.323-.146.968.968 0 00-1.16.72.833.833 0 00-.013.353l2.895 21.472a.96.96 0 00.732.806.967.967 0 001.044-.44l1.795-2.951-2.416-17.939z" fill="#E2E7EE"/><path d="M43.326 62.104c6.707 1.57 13.417-2.595 14.987-9.302 1.57-6.708-2.594-13.418-9.302-14.988-6.707-1.57-13.417 2.595-14.987 9.302-1.57 6.707 2.594 13.418 9.302 14.988z" fill="#6AB0FF"/><path d="M38.072 48.064c1.408-6.017 6.953-9.972 12.92-9.595a12.44 12.44 0 00-1.98-.655c-6.708-1.57-13.418 2.594-14.988 9.302-1.57 6.708 2.594 13.418 9.302 14.988.69.161 1.38.247 2.066.292-5.515-2.31-8.729-8.316-7.32-14.332z" fill="#2A79FC"/><path d="M60.09 18.811l1.571-.974 1.949 3.14-1.57.974-1.95-3.14zm5.6 9.029l1.57-.974 1.95 3.14-1.57.975-1.95-3.14zm-7.93-.526l3.14-1.948.974 1.57-3.14 1.948-.975-1.57zm9.027-5.602l3.14-1.948.975 1.57-3.14 1.948-.975-1.57z" fill="#F9FAFC"/><path d="M45.977 44.695l2.699.632-2.316 9.896-2.7-.632 2.317-9.896z" fill="#262B37"/><path d="M41.536 47.451l9.896 2.317-.632 2.698-9.895-2.316.631-2.699zm-13.993-7.545a2.36 2.36 0 01-1.79-1.972l-2.895-21.468c-.047-.214-.04-.531.037-.857a2.353 2.353 0 012.824-1.75c.317.073.6.204.843.388l17.894 12.08c.8.54 1.191 1.535.97 2.48a2.347 2.347 0 01-2.085 1.806l-8.712.756-4.543 7.47a2.345 2.345 0 01-2.543 1.067zm-1.816-22.88l2.612 19.35 4.288-7.049c.23-.377.624-.622 1.064-.66l8.22-.714-16.184-10.927zm-.778-.526c.006.003.013.009.021.012l-.021-.012zm.641-.495l.013.092c-.004-.026-.007-.059-.013-.092z" fill="#262B37"/><path d="M43.01 63.453c-7.442-1.742-12.078-9.211-10.336-16.653 1.742-7.441 9.211-12.077 16.653-10.335 7.442 1.741 12.078 9.21 10.336 16.652C57.92 60.56 50.45 65.195 43.01 63.453zm5.685-24.29c-5.953-1.393-11.928 2.315-13.322 8.269-1.394 5.953 2.315 11.929 8.268 13.322 5.954 1.394 11.93-2.315 13.323-8.268 1.393-5.954-2.315-11.929-8.269-13.323z" fill="#262B37"/></g><defs><clipPath id="clip0"><path fill="#fff" transform="rotate(13.174 7.58 65.648)" d="M0 0h66.523v66.523H0z"/></clipPath></defs></svg>
